X:1

T:Barry’s Delight

M:2/4

L:1/8

B:Thompson’s Compleat Collection of 200 Favourite Country Dances, vol. 1 (London, 1757)

Z:Transcribed and edited by Flynn Titford-Mock, 2007

Z:abc’s:AK/Fiddler’s Companion

K:D

D2 (3FGA|BGAF|D2 (3FGA|BGEd|D2 (3FGA|BGAg|fdec|dAFA:|

|:{g}fedf|gfeg|eAgA|fAaA|{g}fedf|gfeg|fdec|dAFA:||

 

BARRY'S FANCY. AKA and see "Ballyket Courthouse," "Kathleen's Fiddle," "Micho Russell's Favorite [1]," "Rattigan's,"  "St. Andrew's," "The Swallow [2]." Irish, Reel. G Major. Standard tuning. AABB. Named for fiddler Kathleen Barry. McNulty (Dance Music of Ireland), 1965; pg. 5.

           


BARRY’S TRIP TO PARIS. Canadian, Pipe Reel (cut time). Canada, Cape Breton. A Mixolydian. Standard tuning. AA’BB. Composed by fiddler Jerry Holland (Inverness, Cape Breton) for piper and editor Barry Shears (originally from Glace Bay, Cape Breton) to commemorate their journey to Paris to play for Radio France, in the company of John Morris Rankin and Dave MacIsaac (Cranford). Cranford (Jerry Holland’s), 1995; No. 8, pg. 3. Fiddlesticks cass., Jerry Holland - “Fathers and Sons” (1992).

           

BARS DE LA PRISON, LES. See "Barres d' la Prison, Les."

           

BARTENDER, THE. AKA and see “Maid Behind the Bar [1]."

                       

BARTHOLOMEW FAIR. AKA and see "The Dutchwoman's Jigg." English, Air (6/8 time). E Flat Major. Standard tuning. AB. Bartholomew Fair was a fair held in West Smithfield, London, on St. Bartholomew’s Day, the 24th of August (moved to September 3rd with the initiation of the new calendar in 1753), from 1133 to 1855. According to Chappell the melody can be found in Pills to Purge Melancholy (vol. i., 1699‑1714, and vol. iii., 1719), The Dancing Master (1695 and later editions), The Quaker and other Ballad Operas. Chappell has identified the air's use in another ballad entitled "'Roger in amaize' or, 'The Countryman's Ramble through Bartholemew Fair'" (Pepys Collection). Chappell (Popular Music of the Olden Times), vol. 2, 1859; pg. 77.

